X: 3132
Q: "Reel."
Q:"Reel."
M: C
L: 1/8
K: C
vE |\
e |\
gece gage |
fd_Bd fgfd |\
[1 gece gage | fdge c/c/c c :|\
[2 cedf egfa | gefd c/c/c c |]


